X: 23546
T: Liffey Banks, The
R: reel
M: 4/4
K: Gmajor
(3DEF|:G2 GF GBdB|cBce g2dc|BG~G2 AE~E2|DEGB AE~E2|
G2GF GBdB|cBce g2dc|BG~G2 AFGE|1 DEGB AGGF:|2 DEGB AG G2||
gfge d2Bd|dgbg aged|gfge d2Bd|dgbg abg2|
gfge d2Bd|dgbg aged|g2bg efge|~d3c BcdB||

